X:1
T:Lay It Down
T:Lay It Down
T:William Howard Doane
T:Frances Jane (Fanny) Crosby, 1880
T:Public Domain Courtesy of the Cyber Hymnal™
C:William Howard Doane
Z:Public Domain
Z:Courtesy of the Cyber Hymnal™
%%score ( 1 2 ) 3
L:1/8
Q:1/4=110
M:4/4
K:G
V:1 treble 
V:2 treble 
V:3 bass 
V:1
 D2 | [DG]2 [DG]>[DA] [GB]2 [DG]2 | [FA]2 [Fd]2 [GB]4 | [DG]2 [GB]2 [GB]2 [FA]2 | G6 D2 | %5
w: 1.~Oh,|come, sin- ner, come! ’tis|mer- cy’s call;|Here at Je- sus’|feet! Oh|
w: 2.~Oh|come, and, be- liev- ing,|seek thy rest|Here at Je- sus’|feet! Thy|
w: 3.~Oh|come, where thy faith can|make thee whole,|Here at Je- sus’|feet! Oh|
w: 4.~Oh|come! bless the Lord, there’s|room for thee,|Here at Je- sus’|feet! Thy|
 [DG]2 [DG]>[DA] [GB]2 [DG]2 | [FA]2 [Fd]2 [GB]4 | [DG]2 [GB]2 [GB]2 [FA]2 | G6 || %9
w: come, and, re- pent- ing,|lay thy all|Down at Je- sus’|feet!|
w: heart, with its hea- vy|weight op- pressed,|Lay at Je- sus’|feet!|
w: come, and thy wear- y,|trou- bled soul|Lay at Je- sus’|feet!|
w: bur- den of guilt, what-|e’er it be,|Lay at Je- sus|feet!|
"^Refrain" !fermata![Gd]2 | [Gd]2 [GB]2 [Gd]4 | G2 [GB]2 [FA]4 | [Ac]2 [^GB]2 [Ac]3 [=GB] | %13
w: ||||
w: ||||
w: ||||
w: ||||
 [GB]2 [FA]2 [FA]2 [Ac]2 | [GB]2 G2 [Gd]4 | [GB]2 [=FG]2 [Ec]4 | [GB]2 [DG]2 [GB]2 [DA]2 | [DG]6 |] %18
w: |||||
w: |||||
w: |||||
w: |||||
V:2
 D2 | x8 | x8 | x8 | G6 D2 | x8 | x8 | x8 | G6 || x2 | x8 | G2 x6 | x8 | x8 | x2 G2 x4 | x8 | x8 | %17
 x6 |] %18
V:3
 [G,B,]2 | [G,B,]2 [G,B,]>[G,C] [G,D]2 [G,B,]2 | [D,D]2 [D,D]2 [G,D]4 | %3
w: ~|~ ~ ~ ~ ~|~ ~ ~|
 [B,D]2 [G,D]2 [D,D]2 [D,C]2 | [G,,G,B,]6 [G,B,]2 | [G,B,]2 [G,B,]>[G,C] [G,D]2 [G,B,]2 | %6
w: ~ ~ ~ ~|~ ~|~ ~ ~ ~ ~|
 [D,D]2 [D,D]2 [G,D]4 | [B,D]2 [G,D]2 [D,D]2 [D,C]2 | [G,,G,B,]6 || !fermata![G,B,]2 | %10
w: ~ ~ ~|~ ~ ~ ~|~|Oh,|
 [G,B,]2 [G,D]2 [G,B,]4 | [B,D]2 [G,D]2 [D,D]4 | [D,D]2 [D,D]2 [D,D]3 [D,D] | %13
w: lay it down!|lay it down!|Lay thy wear- y|
 [D,D]2 [D,D]2 [D,D]2 [F,D]2 | [G,D]2 [G,B,]2 [G,B,]4 | [G,D]2 [G,B,]2 [C,G,]4 | %16
w: bur- den down! Oh,|lay it down!|lay it down,|
 [D,D]2 [D,B,]2 [D,D]2 [D,C]2 | [G,,G,B,]6 |] %18
w: Down at Je- sus’|feet!|

